X:1
T:Minute Waltz
C:Frédéric Chopin
O:Op.64 No.1
M:3/4
L:1/8
Q:1/4=192
K:Db
A | d f a f e d | B A d B A d | e f g f e d | A4 A2 |
d f a f e d | B A d B A d | e d B A d B | A6 |
f a f d f a | f4 f2 | e g e c e g | e4 e2 |
A d f a f e | d B d f a f | e d c B A d | d6 |]
